X:1

T:Ai, Mouraria x
C:F. Valerio
Z:A. Do Vale
L:1/8
M:4/4
I:linebreak $
K:C
"C" E2 Gc cBcd |"D7" e2 d4 cA |"G7" e2 d2 B3 G |"C" c8- |"Cm" c z C2 _E3 _A |:$ 
[K:Eb]"G7""^A" G2 D6 |"G7" F2 FF F G2 E |"Cm" (3DED C6- | C z E2 G3 c |"Bb7" B2 F6 | B2 BB- B=ABd | 
"Eb" c2 G6- |"G7" G2 z2 (3G2 c2 =B2 |$"Cm" d2 c2- ccGE | D2 C2 z C DE |"Fm" G2 F6- | 
"G7" F2 z2 (3G2 d2 ^c2 | e2 d2- dd=BG |$"G7" F2 D2 z D EF |"Cm" (3ABA"G7" G6- |"Cm" G z C2 E3 A | 
"G7" G2 D6 | F2 FF F G2 E |"Cm" (3DED C6- | C z E2 G3 c |$"Bb7" B2 F6 | B2 BB- B=ABd |"Eb" c2 G6- | 
"G7" G2 z2 (3G2 c2 =B2 |"Cm" d2 c2- ccGE |$"C7" D2 C2 z C D=E |"Fm" B2 A6- | A2 z2 d2 cB | 
"Cm" (3ABA G2 c2 BA |"G7" (3GAG F2 G2 FE |"C" (3D=ED C6- | C z =A2"C#dim7" G3 F ||$ 
[K:C]"G7""^B" B,2 B,6 | D2 BA D B2 A |"C" C8 | E2 Gc- cBcd |"E7" e2 B4 ^GE |$ 
"F" (d4"F#dim7" d)cBc |"C6" (3ABA G6- |"C" G z A2"C#dim7" G3 F |"G7" B,2 B,6 | D2 BA D B2 A | 
"C" C8 |$"C" E2 Gc- cBcd |"D7" e2 d4 cA |"G7" e2 d2 B3 G |1"C" c8- | c"^A" z"^B""^to" C2 _E3 _A :|2 
"C" c8- | c z A2"C#dim7" G3 F :|3$"C" c8- | c2 z2 c'2 z2!fine! |] 

